X:18677
T:Where Lilies Bloom
R:polka
Z:id:hn-polka-37
M:2/4
L:1/8
K:D
DF/A/ BA|d>e dc|BA B/c/d|BA FD|DF/A/ BA|d>e dc|BA B/c/d|ed d2:|
|:fg/f/ ef/e/|de/d/ cA|BA B/c/d|BA FA|1 fg/f/ ef/e/|de/d/ cA|BA B/c/d|
ed d2:|2 DF/A/ BA|d>e dc|BA B/c/d|ed d2||


